X:1
T:The Bonny Earl o' Murray
M:4/4
L:1/4
K:C
 G| G/2 G3/2 G3/2 G/2| G G2 G| A2 A3/2 A/2| A2 A B| c3/2 c/2 c B| B A2 B|\
 B3/2 A/2 A3/2 A/2| A2 z G| G3/2 c/2 c3/2- c/2| c e2 e| e3/2 d/2 d3/2 e/2|\
 d2 d e| d3/2 c/2 c3/2 d/2| c/2 G2 z/2 c| c3/2 G/2 G E| G3||
